!!!COM:	Pierre de la Rue
**kern	**kern
*part2	*part1
*staff2	*staff1
*clefGv2	*clefG2
*k[]	*k[]
*M2/1	*M2/1
=1-	=1-
[0e	1.b
.	2a
=2	=2
0e_	1b
.	[1cc
=3	=3
0e]	2cc]
.	4b
.	4a
.	1g
=4	=4
1.f	0a
4e	.
4d	.
=5	=5
1c	1cc
[1d	1b
=6	=6
1d]	0a
1f	.
=7	=7
1e	1r
1d	[1dd
=8	=8
1.g	2dd]
.	2cc
.	2b
2f	2a
=9	=9
2e	1g
2d	.
1c	1cc
=10	=10
0d	2b
.	1a
.	4g
.	4f
=11	=11
1c	2.e
.	4d
1B	[1g
=12	=12
0A	2g]
.	4f
.	4e
.	1f
=13	=13
0G	1g
.	1r
=14	=14
1r	1d
1G	[1g
=15	=15
1.c	2g]
.	2f
.	1g
2B	.
=16	=16
1c	1.a
[1d	.
.	[2b
=17	=17
2d]	2b]
1e	4a
.	4g
.	1g
4d	.
4c	.
=18	=18
1c	2r
.	2g
2r	[1cc
2c	.
=19	=19
1.f	2cc]
.	2b
.	[1cc
2e	.
=20	=20
1.f	2cc]
.	1dd
[2g	4cc
.	4b
=21	=21
2g]	1b
4f	.
4e	.
1e	2.cc
.	4b
=22	=22
2.f	2a
.	2.cc
4e	.
2d	.
.	4cc
[2g	4b
.	4a
=23	=23
4g]	2g
4f	.
4e	2b
4d	.
2.c	2a
.	[2g
4d	.
=24	=24
2e	2g]
2f	1cc
1d	.
.	2b
=25	=25
[0c	1cc
.	2r
.	[2cc
=26	=26
1c]	2cc]
.	2cc
1r	1b
=27	=27
2r	2a
1f	2.cc
.	4b
2f	[2a
=28	=28
1e	2a]
.	2g
2d	2b
[2f	[2a
=29	=29
4f]	4a]
4e	4g
1d	2f
.	1e
2c	.
=30	=30
0d	2r
.	2.d
.	4e
.	4f
.	4g
=31	=31
1r	2a
.	2d
2r	2.a
[2f	.
.	4g
=32	=32
2f]	4a
.	4b
2f	1cc
1e	.
.	2cc
=33	=33
2.d	1b
4e	.
4f	2a
4d	.
[2e	[2cc
=34	=34
4e]	4cc]
4d	4b
2c	1a
1B	.
.	2g
=35	=35
0A	0a
==	==
*-	*-
